build/images/gift.svg

<?xml version="1.0" encoding="UTF-8"?>
<svg width="54px" height="39px" viewBox="0 0 54 39" version="1.1" xmlns="http://www.w3.org/2000/svg" xmlns:xlink="http://www.w3.org/1999/xlink">
    <!-- Generator: sketchtool 63.1 (101010) - https://sketch.com -->
    <title>CD5132D7-EB50-4190-8447-D26EF426F2B5</title>
    <desc>Created with sketchtool.</desc>
    <g id="Page-1" stroke="none" stroke-width="1" fill="none" fill-rule="evenodd">
        <g id="Kupa-shop---design" transform="translate(-1421.000000, -2694.000000)" fill="#1E7960" fill-rule="nonzero">
            <g id="gift-(1)" transform="translate(1421.000000, 2694.000000)">
                <path d="M48.7265625,0 L5.2734375,0 C2.36566406,0 0,2.36566406 0,5.2734375 L0,33.1171875 C0,36.0249609 2.36566406,38.390625 5.2734375,38.390625 L21.6210938,38.390625 C22.2035977,38.390625 22.6757812,37.9184414 22.6757812,37.3359375 C22.6757812,36.7534336 22.2035977,36.28125 21.6210938,36.28125 L5.2734375,36.28125 C3.52877344,36.28125 2.109375,34.8618516 2.109375,33.1171875 L2.109375,20.25 L25.0318477,20.25 C25.2009141,21.1059844 25.7104336,21.8602969 26.4661172,22.3394414 C26.7121758,22.4954297 26.9739492,22.6139766 27.2437383,22.6975078 L25.3868555,25.8908906 C25.1720156,26.2602422 25.2013359,26.7227227 25.461,27.0620156 C25.7206641,27.4013086 26.1594141,27.5503359 26.5720078,27.4396992 L29.0975625,26.7618516 L29.7733008,29.2879336 C29.8835156,29.7001055 30.2312461,30.0052266 30.6542812,30.0610195 C30.700582,30.0671367 30.7466719,30.0700898 30.7925508,30.0700898 C31.1656992,30.0700898 31.5156445,29.8718086 31.7055937,29.5427461 L36.514125,21.2140898 L42.5383945,31.9248633 C42.7267617,32.2597266 43.0798711,32.462543 43.4573437,32.462543 C43.5012187,32.462543 43.5453047,32.4598008 43.5896016,32.4542109 C44.0150625,32.4005273 44.3656406,32.094668 44.4764883,31.6803867 L45.152332,29.1541992 L47.6778867,29.8320469 C48.088582,29.9421562 48.5253281,29.7951328 48.7855195,29.4586875 C49.0457109,29.1223477 49.0784062,28.6627148 48.8686289,28.2928359 L45.7671094,22.8273398 C45.8650898,22.8364102 45.9632813,22.842 46.0614727,22.842 C46.660957,22.842 47.2573828,22.6730391 47.7838828,22.3393359 C48.5395664,21.8602969 49.0491914,21.1058789 49.2181523,20.2498945 L51.890625,20.2498945 L51.890625,33.117082 C51.890625,34.8617461 50.4712266,36.2811445 48.7265625,36.2811445 L38.1796875,36.2811445 L38.1796875,30.585832 C38.1796875,30.0033281 37.7075039,29.5311445 37.125,29.5311445 C36.5424961,29.5311445 36.0703125,30.0033281 36.0703125,30.585832 L36.0703125,36.2811445 L30.5896289,36.2811445 C30.007125,36.2811445 29.5349414,36.7533281 29.5349414,37.335832 C29.5349414,37.9183359 30.007125,38.390625 30.5896289,38.390625 L48.7265625,38.390625 C51.6343359,38.390625 54,36.0248555 54,33.117082 L54,5.2734375 C54,2.36566406 51.6343359,0 48.7265625,0 Z M27.595582,20.5577578 C27.2674687,20.3497734 27.0793125,20.0077383 27.0793125,19.6191914 L27.0793125,12.2297344 L27.079207,12.2297344 C27.079207,11.8411875 27.2673633,11.4991523 27.5954766,11.291168 C27.9235898,11.0830781 28.3132969,11.0589258 28.6646133,11.2247227 L33.839332,13.6662188 C33.7116094,14.0126836 33.6417891,14.3868867 33.6417891,14.7771211 L33.6417891,17.0332031 C33.6417891,17.4358828 33.7166719,17.8211602 33.8523047,18.1766953 L28.6647188,20.6242031 C28.3134023,20.7897891 27.9238008,20.7657422 27.595582,20.5577578 Z M31.1527266,26.2816523 L30.862582,25.1970117 C30.7902305,24.9266953 30.6134648,24.6960352 30.3710977,24.5561836 C30.1287305,24.4161211 29.8406953,24.3783633 29.5703789,24.4509258 L28.496707,24.7390664 L29.8614727,22.3919648 L34.7226328,20.0984414 L31.1527266,26.2816523 Z M29.5647891,9.31689844 C28.5613594,8.84355469 27.4031016,8.91558984 26.4662227,9.50948437 C25.5293438,10.1033789 24.9699375,11.1203086 24.9699375,12.2296289 L24.9699375,18.140625 L2.109375,18.140625 L2.109375,5.2734375 C2.109375,3.52877344 3.52877344,2.109375 5.2734375,2.109375 L36.0703125,2.109375 L36.0703125,11.1445664 C36.0703125,11.3190117 36.1133438,11.4830156 36.188332,11.6279297 C35.8501992,11.7002813 35.5318945,11.826 35.2419609,11.9954883 L29.5647891,9.31689844 Z M37.4038594,18.1444219 L36.8623828,18.1444219 C36.2496094,18.1444219 35.7510586,17.6458711 35.7510586,17.0332031 L35.7510586,14.7770156 C35.7510586,14.1642422 36.2496094,13.6657969 36.8623828,13.6657969 L37.4038594,13.6657969 C38.0166328,13.6657969 38.5151836,14.1642422 38.5151836,14.7770156 L38.5151836,17.0332031 C38.5151836,17.6459766 38.0166328,18.1444219 37.4038594,18.1444219 Z M45.7897852,27.1412227 L44.6796211,26.8432734 C44.4093047,26.7707109 44.1212695,26.8086797 43.8789023,26.9485313 C43.6365352,27.0884883 43.4596641,27.319043 43.387418,27.5893594 L43.1078203,28.6343438 L38.3192227,20.1204844 C38.5514648,20.0515078 38.7727383,19.9570078 38.9799844,19.8401484 L42.6216094,21.5583398 L45.7897852,27.1412227 Z M46.6545234,20.5578633 C46.3263047,20.7659531 45.9367031,20.7901055 45.5853867,20.6243086 L40.4115117,18.1832344 C40.5486211,17.8258008 40.6245586,17.4383086 40.6245586,17.0332031 L40.6245586,14.7770156 C40.6245586,14.3843555 40.5536836,14.0079375 40.4244844,13.6596797 L45.5853867,11.2247227 C45.9368086,11.0590312 46.3263047,11.0831836 46.6545234,11.291168 C46.9826367,11.4991523 47.170793,11.841293 47.170793,12.2297344 L47.170793,19.6192969 L47.170793,19.6192969 C47.170793,20.0077383 46.9826367,20.3498789 46.6545234,20.5578633 Z M51.8907305,18.140625 L49.280168,18.140625 L49.280168,12.2297344 C49.280168,11.1204141 48.7207617,10.1034844 47.7838828,9.50958984 C46.8468984,8.91569531 45.6885352,8.84376563 44.6853164,9.31700391 L39.0171094,11.9912695 C38.7249609,11.8214648 38.4042305,11.6957461 38.0634609,11.6245547 C38.1372891,11.4804844 38.179793,11.3176406 38.179793,11.1445664 L38.179793,2.109375 L48.726668,2.109375 C50.471332,2.109375 51.8907305,3.52877344 51.8907305,5.2734375 L51.8907305,18.140625 Z" id="Shape"></path>
                <path d="M26.7700781,36.5902734 C26.5739062,36.3941016 26.3017969,36.28125 26.0244141,36.28125 C25.7470312,36.28125 25.4749219,36.3941016 25.27875,36.5902734 C25.0825781,36.7864453 24.9697266,37.0585547 24.9697266,37.3359375 C24.9697266,37.6133203 25.0825781,37.8854297 25.27875,38.0816016 C25.4749219,38.2777734 25.7470312,38.390625 26.0244141,38.390625 C26.3017969,38.390625 26.5739063,38.2777734 26.7700781,38.0816016 C26.9673047,37.8854297 27.0791016,37.6133203 27.0791016,37.3359375 C27.0791016,37.0585547 26.9673047,36.7864453 26.7700781,36.5902734 Z" id="Path"></path>
                <path d="M22.3066406,5.6953125 L6.75,5.6953125 C6.16749609,5.6953125 5.6953125,6.16749609 5.6953125,6.75 C5.6953125,7.33250391 6.16749609,7.8046875 6.75,7.8046875 L22.3066406,7.8046875 C22.8891445,7.8046875 23.3613281,7.33250391 23.3613281,6.75 C23.3613281,6.16749609 22.8891445,5.6953125 22.3066406,5.6953125 Z" id="Path"></path>
                <path d="M22.3066406,29.53125 L6.75,29.53125 C6.16749609,29.53125 5.6953125,30.0034336 5.6953125,30.5859375 C5.6953125,31.1684414 6.16749609,31.640625 6.75,31.640625 L22.3066406,31.640625 C22.8891445,31.640625 23.3613281,31.1684414 23.3613281,30.5859375 C23.3613281,30.0034336 22.8891445,29.53125 22.3066406,29.53125 Z" id="Path"></path>
                <path d="M13.2890625,11.390625 L6.75,11.390625 C6.16749609,11.390625 5.6953125,11.8628086 5.6953125,12.4453125 C5.6953125,13.0278164 6.16749609,13.5 6.75,13.5 L13.2890625,13.5 C13.8715664,13.5 14.34375,13.0278164 14.34375,12.4453125 C14.34375,11.8628086 13.8715664,11.390625 13.2890625,11.390625 Z" id="Path"></path>
                <path d="M18.1153125,11.6996484 C17.9191406,11.5034766 17.6470313,11.390625 17.3696484,11.390625 C17.0912109,11.390625 16.8201563,11.5034766 16.6239844,11.6996484 C16.4278125,11.8958203 16.3149609,12.1679297 16.3149609,12.4453125 C16.3149609,12.7226953 16.4278125,12.9948047 16.6239844,13.1909766 C16.8201563,13.3871484 17.0912109,13.5 17.3696484,13.5 C17.6470313,13.5 17.9191406,13.3871484 18.1153125,13.1909766 C18.3114844,12.9948047 18.4243359,12.7226953 18.4243359,12.4453125 C18.4243359,12.1679297 18.3114844,11.8958203 18.1153125,11.6996484 Z" id="Path"></path>
            </g>
        </g>
    </g>
</svg>

<svg width="54" height="39" xmlns="http://www.w3.org/2000/svg"><g id="Page-1" stroke="none" stroke-width="1" fill="none" fill-rule="evenodd"><g id="Kupa-shop---design" transform="translate(-1421 -2694)" fill="#1E7960" fill-rule="nonzero"><g id="gift-(1)" transform="translate(1421 2694)"><path d="M48.727 0H5.273A5.28 5.28 0 000 5.273v27.844a5.28 5.28 0 005.273 5.274h16.348a1.055 1.055 0 100-2.11H5.273a3.168 3.168 0 01-3.164-3.164V20.25h22.923a3.204 3.204 0 002.212 2.448l-1.857 3.193a1.055 1.055 0 001.185 1.549l2.526-.678.675 2.526a1.055 1.055 0 001.933.255l4.808-8.329 6.024 10.71a1.055 1.055 0 001.938-.244l.676-2.526 2.526.678a1.055 1.055 0 001.19-1.54l-3.1-5.465a3.213 3.213 0 002.017-.488 3.202 3.202 0 001.433-2.09h2.673v12.868a3.168 3.168 0 01-3.164 3.164H38.18v-5.695a1.055 1.055 0 10-2.11 0v5.695h-5.48a1.055 1.055 0 100 2.11h18.137A5.28 5.28 0 0054 33.117V5.273A5.28 5.28 0 0048.727 0zM27.596 20.558a1.091 1.091 0 01-.517-.939v-7.39c0-.388.188-.73.516-.938a1.091 1.091 0 011.07-.066l5.174 2.441c-.127.347-.197.72-.197 1.111v2.256c0 .403.075.788.21 1.144l-5.187 2.447a1.093 1.093 0 01-1.07-.066zm3.557 5.724l-.29-1.085a1.055 1.055 0 00-1.293-.746l-1.073.288 1.364-2.347 4.862-2.294-3.57 6.184zM29.565 9.317a3.205 3.205 0 00-3.099.192 3.205 3.205 0 00-1.496 2.72v5.912H2.11V5.273A3.168 3.168 0 015.272 2.11H36.07v9.036c0 .174.043.338.118.483a3.201 3.201 0 00-.946.367l-5.677-2.678zm7.839 8.827h-.542a1.113 1.113 0 01-1.11-1.11v-2.257c0-.613.498-1.111 1.11-1.111h.542c.613 0 1.111.498 1.111 1.111v2.256c0 .613-.498 1.111-1.111 1.111zm8.386 8.997l-1.11-.298a1.055 1.055 0 00-1.293.746l-.28 1.045-4.788-8.514a3.2 3.2 0 00.661-.28l3.642 1.718 3.168 5.583zm.865-6.583a1.091 1.091 0 01-1.07.066l-5.173-2.44c.137-.358.213-.746.213-1.15v-2.257c0-.393-.071-.77-.2-1.117l5.16-2.435a1.093 1.093 0 011.07.066c.328.208.516.55.516.939v7.39c0 .388-.188.73-.516.938zm5.236-2.417h-2.61V12.23c0-1.11-.56-2.127-1.497-2.72a3.205 3.205 0 00-3.099-.193l-5.668 2.674a3.198 3.198 0 00-.954-.366 1.05 1.05 0 00.117-.48V2.109h10.547a3.168 3.168 0 013.164 3.164v12.868z" id="Shape"/><path d="M26.77 36.59a1.063 1.063 0 00-.746-.309c-.277 0-.55.113-.745.31a1.063 1.063 0 00-.31.745c0 .277.114.55.31.746.196.196.468.309.745.309a1.058 1.058 0 00.746-1.8zM22.307 5.695H6.75a1.055 1.055 0 100 2.11h15.557a1.055 1.055 0 100-2.11zm0 23.836H6.75a1.055 1.055 0 100 2.11h15.557a1.055 1.055 0 100-2.11zM13.29 11.39H6.75a1.055 1.055 0 100 2.11h6.54a1.055 1.055 0 100-2.11zm4.825.31a1.063 1.063 0 00-.745-.31c-.279 0-.55.113-.746.31a1.063 1.063 0 00-.309.745c0 .278.113.55.309.746.196.196.467.309.746.309a1.06 1.06 0 001.055-1.055c0-.277-.114-.55-.31-.745z" id="Path"/></g></g></g></svg>
